changedetectionio/static/images/notviewed.svg

<?xml version="1.0" encoding="utf-8"?>
<!-- Generator: Adobe Illustrator 25.4.1, SVG Export Plug-In . SVG Version: 6.00 Build 0)  -->
<svg version="1.1"
	 id="svg2" xmlns:cc="http://creativecommons.org/ns#" xmlns:dc="http://purl.org/dc/elements/1.1/" xmlns:inkscape="http://www.inkscape.org/namespaces/inkscape" xmlns:ns1="http://sozi.baierouge.fr" xmlns:rdf="http://www.w3.org/1999/02/22-rdf-syntax-ns#" xmlns:sodipodi="http://sodipodi.sourceforge.net/DTD/sodipodi-0.dtd" xmlns:svg="http://www.w3.org/2000/svg"
	 xmlns="http://www.w3.org/2000/svg" xmlns:xlink="http://www.w3.org/1999/xlink" x="0px" y="0px" width="9.5px" height="15px"
	 viewBox="0 0 9.5 15" style="enable-background:new 0 0 9.5 15;" xml:space="preserve">
<style type="text/css">
	.st0{fill:#0078E7;}
	.st1{fill:#0078E7;stroke:#0078E7;stroke-width:0.1;stroke-miterlimit:4.6604;}
	.st2{fill-rule:evenodd;clip-rule:evenodd;fill:#FFFFFF;}
</style>
<sodipodi:namedview  bordercolor="#666666" borderopacity="1.0" id="base" inkscape:current-layer="layer1" inkscape:cx="88.93244" inkscape:cy="-6.4524562" inkscape:document-units="px" inkscape:guide-bbox="true" inkscape:pageopacity="0.0" inkscape:pageshadow="2" inkscape:window-height="822" inkscape:window-maximized="0" inkscape:window-width="1274" inkscape:window-x="0" inkscape:window-y="25" inkscape:zoom="1" pagecolor="#ffffff" showgrid="false" showguides="true">
	</sodipodi:namedview>
<path id="path3740" sodipodi:nodetypes="cccccc" class="st0" d="M2.2,0C1.8,0,0.7,0.1,0,1.5v1.3h2.2V0C2.3,0.1,2.2,0,2.2,0L2.2,0z"
	/>
<path id="rect3728" sodipodi:nodetypes="ccccc" class="st0" d="M0.3,1.7l-0.2,1h2.1V0.2C1.1,0.4,0.6,1.2,0.3,1.7L0.3,1.7z"/>
<path id="path3655" class="st0" d="M9.5,2.6L9.5,2.6L2.3,0L2,0.2l7.2,2.6v0.1"/>
<path id="path3645" sodipodi:nodetypes="cccc" class="st0" d="M9.2,2.8v10.5L9.4,13V2.5"/>
<path id="rect3517" sodipodi:nodetypes="ccccc" class="st0" d="M2,0.2l7.2,2.6v10.6L2,10.8V0.2z"/>
<path id="path3657" sodipodi:nodetypes="cc" class="st1" d="M2.1,0.2l7.1,2.6"/>
<path id="path3684" sodipodi:nodetypes="cccccc" class="st2" d="M0.5,9.6l0.1-7.2L0.4,2.3c0,0,0.8-1.2,1.6-1.3l6.8,2.4v0.1"/>
<path id="path3679" class="st2" d="M8.9,3.4L8.7,13l-1.4,1.3l-6.8-2.4V9.5"/>
<path id="path3669" class="st0" d="M7.5,4.2L7.5,4.2L0.3,1.6L0,1.9l7.2,2.6v0.1"/>
<path id="path3671" sodipodi:nodetypes="cccc" class="st0" d="M7.2,4.5V15l0.2-0.3V4.2"/>
<path id="path3673" sodipodi:nodetypes="ccccc" class="st0" d="M0,1.9l7.2,2.6V15L0,12.4V1.9z"/>
<path id="path3675" sodipodi:nodetypes="cc" class="st1" d="M0.1,1.9l7.1,2.6"/>
</svg>

<svg id="svg2" xmlns="http://www.w3.org/2000/svg" width="9.5" height="15" viewBox="0 0 9.5 15"><path id="path3740" d="M2.2,0A2.41,2.41,0,0,0,0,1.5V2.8H2.2V0Z" transform="translate(0 0)" style="fill:#0078e7"/><path id="rect3728" d="M.3,1.7l-.2,1H2.2V.2A2.76,2.76,0,0,0,.3,1.7Z" transform="translate(0 0)" style="fill:#0078e7"/><path id="path3655" d="M9.5,2.6h0L2.3,0,2,.2,9.2,2.8v.1" transform="translate(0 0)" style="fill:#0078e7"/><path id="path3645" d="M9.2,2.8V13.3l.2-.3V2.5" transform="translate(0 0)" style="fill:#0078e7"/><path id="rect3517" d="M2,.2,9.2,2.8V13.4L2,10.8Z" transform="translate(0 0)" style="fill:#0078e7"/><path id="path3657" d="M2.1.2,9.2,2.8" transform="translate(0 0)" style="fill:#0078e7;stroke:#0078e7;stroke-miterlimit:4.660399913787842;stroke-width:0.10000000149011612px"/><path id="path3684" d="M.5,9.6.6,2.4.4,2.3S1.2,1.1,2,1L8.8,3.4v.1" transform="translate(0 0)" style="fill:#fff;fill-rule:evenodd"/><path id="path3679" d="M8.9,3.4,8.7,13,7.3,14.3.5,11.9V9.5" transform="translate(0 0)" style="fill:#fff;fill-rule:evenodd"/><path id="path3669" d="M7.5,4.2h0L.3,1.6,0,1.9,7.2,4.5v.1" transform="translate(0 0)" style="fill:#0078e7"/><path id="path3671" d="M7.2,4.5V15l.2-.3V4.2" transform="translate(0 0)" style="fill:#0078e7"/><path id="path3673" d="M0,1.9,7.2,4.5V15L0,12.4Z" transform="translate(0 0)" style="fill:#0078e7"/><path id="path3675" d="M.1,1.9,7.2,4.5" transform="translate(0 0)" style="fill:#0078e7;stroke:#0078e7;stroke-miterlimit:4.660399913787842;stroke-width:0.10000000149011612px"/></svg>
